X: 149
T: REEL: Red-Haired Lass
C: C: Trad.; S: Various
C: Set Leaders: Mars, Anton
Z: Mars Agliullin ed., Anton Zille ed.; leprecawn at The Session
N: https://thesession.org/members/26966/sets/94255
R: Reel
M: 4/4
L: 1/8
Q: 1/2=100
K: Gmaj
DGGF ~G2BG|~G2BG AGEG|DGGF GABd|egdB cBAG|
DGGF ~G2BG|~G2BG AGEG|DGGF GABd|gedB cABc||
d2gd edgd|d2gd BGBc|d2gd edef|gedB cABc|
d2gd edgd|d2gd BGAB|c2cA B2BA|GA (3Bcd (3efg dB||

